X:1
T:Gingesng
C:av Olle Bernhoff
Z:Patrik Mnsson, 2008-12-28
O:Ginge, Skne
N:SASA, Sknsk samling, Brderna FORSELLS Boktryckeri, Malm 1942. Redaktrer Ernfrid Tjrne och Anders Ohlsson med omslag och illustrationer av Erik Mnsson.
M:2/4
L:1/8
K:C
| G C2 C | E2 G2 | c3 c | c c2 c | d3 c | F3 A |
G G2 G | c3 G | G3 F | F3 E | D2 E F | G3 z |
E C2 C | E2 G2 | e3 c | c c2 c | d3 c | C3 E |
G c2 c | c2 G2 | A2 A A | G G2 G | B3 B | c3 z |
